X:37
T:Padraig O'Keefe's
Z: id:dc-polka-30
M:2/4
L:1/8
K:A Major
A>B ce|fg a2|fe ce|f/a/f/e/ ce|!
A>B ce|fg a2|fe cB|A2 A2:|!
a>g fe|fg a2|fe ce|f/a/f/e/ ce|!
a>g fe|fg a2|fe cB|A2 A2:|!

